frontend/public/stake-logo-white.svg

<svg id="emEv4f6nraq1" xmlns="http://www.w3.org/2000/svg" xmlns:xlink="http://www.w3.org/1999/xlink" viewBox="0 0 100 50" shape-rendering="geometricPrecision" text-rendering="geometricPrecision" project-id="77dae89390684f399deb4a0deec1cc37" export-id="546037041151405e9b207598c381c348" cached="false"><circle r="12" transform="translate(15 25)" fill="#f00"/><path d="M16.129239,9.839546q0-5,9.828823-5.477691" transform="translate(0 3)" fill="none" stroke="#000" stroke-width="2"/><line x1="25" y1="5" x2="28" y2="2" transform="translate(1.097368 2.43812)" fill="none" stroke="#ffa500" stroke-width="2"/><line x1="25" y1="5" x2="28" y2="8" transform="translate(.958062 2.267444)" fill="none" stroke="#ffa500" stroke-width="2"/><text dx="0" dy="0" font-family="&quot;Arial&quot;" font-size="18" font-weight="700" transform="translate(7.520324 31.250361)" fill="#fff"><tspan font-family="&quot;Arial&quot;" font-size="18" font-weight="700" font-style="normal" transform="translate(7 30)" fill="#fff"><![CDATA[
mi-
]]></tspan></text><g transform="translate(30 0)"><g transform="translate(.000001 7.500006)"><path d="M4.42361,10.2724c0-4.54863,2.88763-7.06999,8.22849-7.08702c3.8417,0,4.5316,2.50432,4.5316,3.40724c0,1.75473-2.4787,3.61168-2.4787,3.61168s.1448,1.0818,2.2658,1.0733s4.1994-1.40551,4.1824-4.91497c0-4.02906-4.2591-5.87749-8.4159-5.860453-3.49245,0-12.726069.502563-12.726069,9.702123c0,8.1859,15.443269,8.9014,15.460369,14.1486c0,5.6815-6.35452,7.2148-8.51812,7.2233s-3.04096-1.5333-3.04096-2.3851c0-4.5997,4.5657-5.886,4.5657-5.886-.0098-.2573-.07069-.5102-.17912-.7438s-.26226-.4433-.45251-.6169-.41312-.3076-.65565-.3943-.49988-.1242-.75706-.1104c-4.54867,0-6.371541,3.9353-6.354505,7.7685c0,3.2624,2.316925,5.2982,5.800825,5.2897c6.6526,0,14.1571-3.2795,14.1315-10.4943-.0255-6.7463-15.57106-8.5096-15.58809-13.7312Z" fill="#fff"/><path d="M67.8834,28.3564c-.0511-.1278-.1959-.0937-.4003.0681-.8713.8169-1.8979,1.4505-3.0187,1.8631s-2.3131.596-3.5062.539c-7.3681,0-8.6458-12.1212-8.6458-12.1212s5.6219-4.1994,6.4737-5.886-1.891-2.0955-1.891-2.0955-3.9268,4.7872-6.7123,6.1927c.2982-2.0784,2.351-6.8145,2.4788-9.54881s-3.2454-2.03583-3.8246-1.75473c0,1.19253-2.9984,11.99344-4.0972,17.93064-.6389,1.0306-1.5588,2.2147-2.3851,2.2147-.477,0-.6559-.8518-.6559-2.1551c0-1.7547.9626-4.5742.9626-6.2864c0-1.184-.5452-1.2607-1.0137-1.2521h-.7496c-1.201,0-.8092-1.0222-1.891-1.0137-3.305,0-7.5215,3.6202-7.6663,9.0803-1.1159.7411-2.6747,1.7036-3.4754,1.7036s-1.1073-.8092-1.1073-1.4821c0-1.1755,1.8995-8.1604,1.8995-8.1604s2.4191-.6218,3.4839-.8518c.8007-.1618,1.0222-.2214,1.3373-.6048s.92-1.184,1.4055-1.8995s0-1.2777-.8518-1.2692c-1.4753.1463-2.9384.3968-4.3783.7496c0,0,1.4907-6.57597,1.4822-6.70374s-.1789-.20443-.4259-.20443c-.7825.08067-1.5504.26692-2.2829.55367-.4645.21623-.8814.52261-1.2265.90134s-.6115.82228-.7838,1.30485c-.1703.57923-1.3118,5.11081-1.3118,5.11081s-6.1415,2.1211-6.9848,2.4447c-.0247.0088-.0461.0249-.0614.0462s-.0235.0469-.0238.0731c0,.0511.707,2.7428,2.1381,2.7343c1.0392,0,4.0631-1.2351,4.0631-1.2351s-1.5503,6.1586-1.5418,8.2114c0,1.3203.6218,2.8706,3.2113,2.8621c2.0644-.1041,4.0473-.8384,5.6816-2.104.2577.6315.7031,1.1686,1.2759,1.5387.5727.3702,1.2454.5556,1.9269.5312c1.6641-.1281,3.2186-.8795,4.3528-2.1039.1728.5696.5146,1.0734.98,1.4445.4655.3712,1.0327.5922,1.6265.6339.92,0,1.874-1.0392,2.5554-2.0273-.0134.207-.0134.4147,0,.6218.2811,2.5554,4.0887,1.0562,4.2591.6985.1278-1.857,0-5.6475.7837-7.9815.9795,7.9815,4.7105,13.3479,11.4057,13.3223c3.7394,0,5.656-1.0903,6.4567-1.9762.3369-.344.5767-.7712.6949-1.238s.1106-.9567-.022-1.4196v0ZM35.7872,25.7243c-3.2113,0,.9881-8.3222,3.731-8.3307-.0341,1.0733-.0937,8.3222-3.731,8.3307Z" fill="#fff"/><path d="M61.8611,28.2797c1.053-.021,2.0903-.2588,3.0473-.6984s1.8132-1.0718,2.5151-1.857c.5281-.8092-.6219-2.0358-.9881-2.0103-.4845.6013-1.0965,1.0875-1.7919,1.4233s-1.4565.5131-2.2287.5188c-2.5554,0-1.9591-2.7769-1.9591-2.7769s4.8723.6304,6.8144-2.8706c.536-1.0205.6843-2.2006.4174-3.322-.264-.6729-1.7036-1.8995-3.9268-1.7036-2.7684.2385-6.2608,3.1261-7.0275,6.593-.6218,2.7769.5452,6.7208,5.1279,6.7037Zm3.0921-11.6953c.46,0,.4174.741.2981,1.5247-.1703,1.0648-1.6439,3.7735-4.4379,3.6713.1959-1.5758,2.2743-5.0938,4.1398-5.196Z" fill="#fff"/></g></g></svg>

<svg width="68" height="35" viewBox="0 0 68 35" fill="none" xmlns="http://www.w3.org/2000/svg">
<path d="M4.42361 10.2724C4.42361 5.72377 7.31124 3.20241 12.6521 3.18538C16.4938 3.18538 17.1837 5.6897 17.1837 6.59262C17.1837 8.34735 14.705 10.2043 14.705 10.2043C14.705 10.2043 14.8498 11.2861 16.9708 11.2776C19.0918 11.2691 21.1702 9.87209 21.1532 6.36263C21.1532 2.33357 16.8941 0.48514 12.7373 0.502177C9.24485 0.502177 0.0112305 1.00474 0.0112305 10.2043C0.0112305 18.3902 15.4545 19.1057 15.4716 24.3529C15.4716 30.0344 9.11708 31.5677 6.95348 31.5762C4.78988 31.5847 3.91252 30.0429 3.91252 29.1911C3.91252 24.5914 8.47822 23.3051 8.47822 23.3051C8.46842 23.0478 8.40753 22.7949 8.2991 22.5613C8.19066 22.3277 8.03684 22.118 7.84659 21.9444C7.65635 21.7708 7.43347 21.6368 7.19094 21.5501C6.94841 21.4635 6.69106 21.4259 6.43388 21.4397C1.88521 21.4397 0.0623391 25.375 0.0793753 29.2082C0.0793753 32.4706 2.3963 34.5064 5.8802 34.4979C12.5328 34.4979 20.0373 31.2184 20.0117 24.0036C19.9862 17.2573 4.44064 15.494 4.42361 10.2724Z" fill="#ffffff"/>
<path d="M67.8834 28.3564C67.8323 28.2286 67.6875 28.2627 67.4831 28.4245C66.6118 29.2414 65.5852 29.875 64.4644 30.2876C63.3436 30.7003 62.1513 30.8836 60.9582 30.8266C53.5901 30.8266 52.3124 18.7054 52.3124 18.7054C52.3124 18.7054 57.9343 14.506 58.7861 12.8194C59.6379 11.1328 56.8951 10.7239 56.8951 10.7239C56.8951 10.7239 52.9683 15.5111 50.1828 16.9166C50.481 14.8382 52.5338 10.1021 52.6616 7.36779C52.7894 4.63348 49.4162 5.33196 48.837 5.61306C48.837 6.80559 45.8386 17.6065 44.7398 23.5437C44.1009 24.5743 43.181 25.7584 42.3547 25.7584C41.8777 25.7584 41.6988 24.9066 41.6988 23.6033C41.6988 21.8486 42.6614 19.0291 42.6614 17.3169C42.6614 16.1329 42.1162 16.0562 41.6477 16.0648H40.8981C39.6971 16.0648 40.0889 15.0426 39.0071 15.0511C35.7021 15.0511 31.4856 18.6713 31.3408 24.1314C30.2249 24.8725 28.6661 25.835 27.8654 25.835C27.0647 25.835 26.7581 25.0258 26.7581 24.3529C26.7581 23.1774 28.6576 16.1925 28.6576 16.1925C28.6576 16.1925 31.0767 15.5707 32.1415 15.3407C32.9422 15.1789 33.1637 15.1193 33.4788 14.7359C33.794 14.3526 34.3988 13.5519 34.8843 12.8364C35.3699 12.1209 34.8843 11.5587 34.0325 11.5672C32.5572 11.7135 31.0941 11.964 29.6542 12.3168C29.6542 12.3168 31.1449 5.74083 31.1364 5.61306C31.1278 5.48529 30.9575 5.40863 30.7105 5.40863C29.928 5.4893 29.1601 5.67555 28.4276 5.9623C27.9631 6.17853 27.5462 6.48491 27.2011 6.86364C26.856 7.24238 26.5896 7.68592 26.4173 8.16849C26.247 8.74772 25.1055 13.2793 25.1055 13.2793C25.1055 13.2793 18.964 15.4004 18.1207 15.724C18.096 15.7328 18.0746 15.7489 18.0593 15.7702C18.0441 15.7916 18.0358 15.8171 18.0355 15.8433C18.0355 15.8944 18.7425 18.5861 20.1736 18.5776C21.2128 18.5776 24.2367 17.3425 24.2367 17.3425C24.2367 17.3425 22.6864 23.5011 22.6949 25.5539C22.6949 26.8742 23.3167 28.4245 25.9062 28.416C27.9706 28.3119 29.9535 27.5776 31.5878 26.312C31.8455 26.9435 32.2909 27.4806 32.8637 27.8507C33.4364 28.2209 34.1091 28.4063 34.7906 28.3819C36.4547 28.2538 38.0092 27.5024 39.1434 26.278C39.3162 26.8476 39.658 27.3514 40.1234 27.7225C40.5889 28.0937 41.1561 28.3147 41.7499 28.3564C42.6699 28.3564 43.6239 27.3172 44.3053 26.3291C44.2919 26.5361 44.2919 26.7438 44.3053 26.9509C44.5864 29.5063 48.394 28.0071 48.5644 27.6494C48.6922 25.7924 48.5644 22.0019 49.3481 19.6679C50.3276 27.6494 54.0586 33.0158 60.7538 32.9902C64.4932 32.9902 66.4098 31.8999 67.2105 31.014C67.5474 30.67 67.7872 30.2428 67.9054 29.776C68.0236 29.3091 68.016 28.8193 67.8834 28.3564V28.3564ZM35.7872 25.7243C32.5759 25.7243 36.7753 17.4021 39.5182 17.3936C39.4841 18.4669 39.4245 25.7158 35.7872 25.7243Z" fill="#ffffff"/>
<path d="M61.8611 28.2797C62.9141 28.2587 63.9514 28.0209 64.9084 27.5813C65.8654 27.1416 66.7216 26.5095 67.4235 25.7243C67.9516 24.9151 66.8016 23.6885 66.4354 23.714C65.9509 24.3153 65.3389 24.8015 64.6435 25.1373C63.9482 25.4732 63.187 25.6504 62.4148 25.6561C59.8594 25.6561 60.4557 22.8792 60.4557 22.8792C60.4557 22.8792 65.328 23.5096 67.2701 20.0086C67.8061 18.9881 67.9544 17.808 67.6875 16.6866C67.4235 16.0137 65.9839 14.7871 63.7607 14.983C60.9923 15.2215 57.4999 18.1091 56.7332 21.576C56.1114 24.3529 57.2784 28.2968 61.8611 28.2797ZM64.9532 16.5844C65.4132 16.5844 65.3706 17.3254 65.2513 18.1091C65.081 19.1739 63.6074 21.8826 60.8134 21.7804C61.0093 20.2046 63.0877 16.6866 64.9532 16.5844Z" fill="#ffffff"/>
</svg>
